lib/components/Logo/assets/LogoNewDom.svg

<svg width="143" height="52" viewBox="0 0 143 52" fill="none" xmlns="http://www.w3.org/2000/svg">
<path d="M70.8048 32.2262H71.4035C71.4412 32.2308 71.4794 32.2273 71.5156 32.2161C71.5518 32.2048 71.5852 32.186 71.6136 32.1608C71.6419 32.1357 71.6647 32.1048 71.6802 32.0703C71.6958 32.0357 71.7039 31.9982 71.7039 31.9603C71.7039 31.9224 71.6958 31.8849 71.6802 31.8503C71.6647 31.8157 71.6419 31.7849 71.6136 31.7597C71.5852 31.7346 71.5518 31.7158 71.5156 31.7045C71.4794 31.6932 71.4412 31.6898 71.4035 31.6944H70.8048V32.2262ZM71.3839 31.3004C71.476 31.2918 71.5689 31.3018 71.6571 31.3299C71.7453 31.358 71.827 31.4035 71.8972 31.4638C71.9674 31.5241 72.0247 31.5979 72.0658 31.6808C72.1069 31.7638 72.1309 31.8541 72.1363 31.9465C72.138 32.0641 72.1064 32.1799 72.045 32.2803C71.9837 32.3807 71.8951 32.4616 71.7896 32.5138L72.0969 33.0377H71.6045L71.3839 32.6201H70.8048V33.0377H70.3517V31.3004H71.3839ZM71.1633 33.6128C71.3539 33.6226 71.5446 33.593 71.7234 33.5261C71.9022 33.4591 72.0653 33.3562 72.2027 33.2236C72.3401 33.091 72.4488 32.9316 72.5221 32.7553C72.5953 32.579 72.6316 32.3895 72.6287 32.1986C72.6267 32.0095 72.587 31.8227 72.5119 31.6491C72.4368 31.4755 72.3278 31.3186 72.1913 31.1877C72.0549 31.0567 71.8937 30.9543 71.7171 30.8864C71.5406 30.8185 71.3523 30.7865 71.1633 30.7923C70.7892 30.7923 70.4305 30.9408 70.166 31.2053C69.9016 31.4698 69.753 31.8285 69.753 32.2026C69.753 32.5766 69.9016 32.9353 70.166 33.1998C70.4305 33.4643 70.7892 33.6128 71.1633 33.6128ZM71.1633 30.3195C71.4174 30.3106 71.6707 30.3527 71.9083 30.4433C72.1459 30.5339 72.3629 30.6712 72.5465 30.8471C72.7302 31.023 72.8766 31.2339 72.9774 31.4674C73.0781 31.7009 73.131 31.9522 73.1329 32.2065C73.1494 32.5992 73.0481 32.9878 72.8419 33.3224C72.6358 33.657 72.3343 33.9223 71.9761 34.0841C71.618 34.246 71.2196 34.297 70.8322 34.2306C70.4449 34.1642 70.0862 33.9834 69.8024 33.7115C69.5186 33.4397 69.3226 33.0891 69.2397 32.7049C69.1567 32.3208 69.1906 31.9206 69.3369 31.5558C69.4833 31.1911 69.7354 30.8784 70.0609 30.6581C70.3863 30.4378 70.7702 30.3199 71.1633 30.3195Z" fill="#141416"/>
<path d="M6.61418 43.2933C5.95238 43.3001 5.29185 43.234 4.6445 43.0963C4.11407 42.9836 3.59757 42.8132 3.10421 42.5881C2.67999 42.3998 2.2826 42.156 1.9224 41.8633C1.61748 41.6139 1.34014 41.3326 1.09514 41.0242C0.562615 40.3548 0.188244 39.5738 0 38.7394H4.66419C4.73754 38.986 4.85793 39.2161 5.01874 39.4169C5.18168 39.6056 5.37969 39.7607 5.60176 39.8739C5.91743 40.0239 6.26504 40.0942 6.61418 40.0788C6.99078 40.1122 7.36891 40.0341 7.70144 39.8542C7.78873 39.8042 7.8624 39.7335 7.91598 39.6483C7.96955 39.5631 8.0014 39.4661 8.00871 39.3657C8.00528 39.2604 7.97297 39.158 7.91531 39.0698C7.85765 38.9815 7.77685 38.9109 7.68174 38.8654C7.41084 38.7092 7.12086 38.5887 6.81902 38.5069C6.46054 38.4006 6.03115 38.2942 5.59388 38.1839C5.15661 38.0736 4.67207 37.9554 4.20329 37.8176C3.72803 37.6814 3.26219 37.5143 2.80876 37.3173C2.36591 37.1325 1.95301 36.8829 1.58362 36.5767C1.22619 36.2819 0.93264 35.9173 0.720903 35.5052C0.493879 35.0382 0.383058 34.5233 0.397876 34.0043C0.406858 33.4996 0.542304 33.0052 0.791811 32.5664C1.07127 32.068 1.45896 31.6385 1.92634 31.3097C2.48937 30.9082 3.11688 30.6057 3.78178 30.4155C4.61749 30.1746 5.4846 30.0604 6.35418 30.0767C6.96151 30.0708 7.56772 30.1303 8.16234 30.254C8.65544 30.3566 9.13521 30.5152 9.59233 30.7267C9.97854 30.9069 10.34 31.1359 10.6678 31.4082C11.5682 32.1445 12.2043 33.154 12.4799 34.284H7.82356C7.78533 34.1017 7.70127 33.9322 7.57932 33.7915C7.46343 33.6463 7.31852 33.5269 7.15387 33.4409C6.92806 33.3327 6.67923 33.2813 6.42903 33.2912C6.10489 33.264 5.7797 33.3296 5.49146 33.4803C5.41333 33.5244 5.34773 33.5877 5.30086 33.6643C5.25399 33.7408 5.22739 33.828 5.22358 33.9176C5.22358 34.1303 5.41267 34.3115 5.79085 34.4061C6.16903 34.5006 6.63781 34.6385 7.20114 34.7567C7.76447 34.8749 8.38295 35.0167 9.029 35.1861C9.66663 35.3435 10.2811 35.5831 10.8569 35.8991C11.4064 36.1974 11.8869 36.6081 12.2671 37.1045C12.6641 37.6573 12.8638 38.3274 12.8344 39.0072C12.8343 39.5694 12.6992 40.1233 12.4405 40.6224C12.1554 41.1619 11.7513 41.6293 11.2587 41.9893C10.6637 42.4193 9.99664 42.7395 9.289 42.9348C8.41363 43.1875 7.50548 43.3083 6.59448 43.2933" fill="#141416"/>
<path d="M16.7085 34.2873H12.8125V30.4346H25.249V34.2873H21.353V42.9381H16.7085V34.2873Z" fill="#141416"/>
<path d="M41.1641 30.4346H46.3601L49.8306 36.3278V30.4346H54.4357V42.9381H49.2397L45.7731 37.0409V42.9381H41.1641V30.4346Z" fill="#141416"/>
<path d="M56.0391 30.4346H66.9471V34.0076H60.6796V35.1657H66.9471V38.203H60.6796V39.3651H66.9471V42.9381H56.0391V30.4346Z" fill="#141416"/>
<path d="M32.741 39.3411C32.2226 39.3195 31.7221 39.1461 31.3015 38.8424C30.8809 38.5387 30.5588 38.1181 30.3753 37.6329C30.1917 37.1476 30.1548 36.6192 30.269 36.1131C30.3833 35.6071 30.6437 35.1458 31.018 34.7865C31.3922 34.4272 31.8638 34.1858 32.374 34.0923C32.8843 33.9988 33.4108 34.0573 33.8882 34.2605C34.3655 34.4637 34.7726 34.8026 35.0589 35.2353C35.3452 35.6679 35.4981 36.1751 35.4985 36.6939C35.4913 37.0488 35.4143 37.3988 35.2718 37.724C35.1294 38.0491 34.9242 38.343 34.6682 38.5888C34.4121 38.8346 34.1101 39.0276 33.7794 39.1567C33.4487 39.2858 33.0959 39.3485 32.741 39.3411ZM39.6427 34.1018C39.3013 33.305 38.7952 32.5894 38.1576 32.0021C37.4775 31.3852 36.6842 30.9063 35.8215 30.5918C33.8242 29.903 31.6537 29.903 29.6564 30.5918C28.7924 30.9058 27.9977 31.3848 27.3165 32.0021C26.6886 32.5928 26.1909 33.3079 25.855 34.1018C25.5124 34.9189 25.3359 35.7961 25.3359 36.6821C25.3359 37.5681 25.5124 38.4452 25.855 39.2624C26.1969 40.0577 26.703 40.7719 27.3401 41.3581C28.0198 41.9784 28.8149 42.4589 29.6801 42.7723C31.6774 43.4612 33.8479 43.4612 35.8452 42.7723C36.7087 42.458 37.5024 41.9775 38.1812 41.3581C38.811 40.7706 39.3091 40.0564 39.6427 39.2624C39.9858 38.4447 40.1626 37.5668 40.1626 36.6801C40.1626 35.7934 39.9858 34.9155 39.6427 34.0979" fill="#141416"/>
<path d="M74.84 41.7247C75.3042 41.6686 75.7527 41.5214 76.1597 41.2913C76.9673 40.791 77.7709 40.2868 78.5036 39.7826L85.7599 35.0553C86.7132 34.4093 86.7132 34.3384 85.9805 33.4796C85.9057 33.4087 85.8308 33.2669 85.7599 33.192C85.5035 32.8301 85.1344 32.5634 84.7103 32.4337C84.2861 32.304 83.831 32.3185 83.416 32.475C81.852 32.8936 80.4003 33.6538 79.1654 34.7008C77.4631 36.1416 76.0247 37.8679 74.9149 39.8022C74.6123 40.2812 74.4124 40.8178 74.3279 41.378C74.253 41.6656 74.3988 41.8113 74.84 41.7404M87.4459 33.6214C87.6665 33.5505 87.7375 33.3338 87.8123 33.2629C88.9114 31.3208 90.1562 29.5245 91.4011 27.7281C93.162 25.0691 94.9938 22.4849 96.8256 19.8258C97.6134 18.6046 98.5116 17.4622 99.2443 16.2331C100.564 14.2949 102.029 12.3528 103.42 10.4147C104.74 8.40165 106.28 6.5344 107.753 4.59624C108.411 3.66261 108.998 2.65414 109.723 1.79142C110.188 1.197 110.73 0.667096 111.334 0.21568C111.775 -0.0718932 112.122 -0.0718932 112.362 0.21568C112.654 0.503253 112.579 0.790824 112.362 1.1493C112.119 1.57289 111.849 1.98076 111.555 2.37051C110.601 3.44989 109.798 4.60018 108.915 5.75047L108.037 6.82592C105.839 9.6268 103.786 12.4316 101.734 15.3034C100.198 17.4582 98.6574 19.6131 97.1171 21.8427C95.2144 24.356 93.5283 27.0151 91.6965 29.5993C90.3768 31.3957 89.2029 33.2669 88.0329 35.0593L82.5178 43.6825C81.0524 46.1249 79.4412 48.4964 77.9009 50.8679C77.742 51.2176 77.5189 51.5343 77.243 51.8015C77.2013 51.8567 77.1486 51.9026 77.0882 51.9364C77.0278 51.9701 76.9611 51.991 76.8922 51.9977C76.8234 52.0043 76.7539 51.9967 76.6881 51.9751C76.6224 51.9535 76.5618 51.9186 76.5103 51.8724C76.2897 51.7306 76.3645 51.443 76.4355 51.2264C76.8767 50.6512 77.3179 50.0761 77.6842 49.5009C78.866 47.5628 80.0478 45.5616 81.273 43.6116C82.8133 41.1692 84.3496 38.652 85.8151 36.2096C86.0491 35.9755 86.2035 35.6736 86.2563 35.3468C85.3029 35.9968 84.4245 36.6429 83.546 37.2889C81.6393 38.652 79.8075 40.0189 77.9009 41.3819C77.2712 41.8097 76.6132 42.194 75.9312 42.5322C75.5893 42.7167 75.217 42.8381 74.8321 42.8907C73.4415 43.1074 72.4134 42.2446 72.4882 40.8816C72.5642 40.2205 72.7108 39.5694 72.9255 38.9395C73.831 36.7114 75.3297 34.774 77.2588 33.3378C78.4827 32.3379 79.8719 31.5593 81.3636 31.0372C82.2138 30.7652 83.1101 30.6674 83.999 30.7496C84.4772 30.7526 84.9475 30.8721 85.369 31.098C85.7905 31.3238 86.1505 31.6491 86.4178 32.0457C86.7841 32.546 87.0796 33.0502 87.4459 33.6214Z" fill="#B2461A"/>
<path d="M101.075 34.6806C100.93 34.5388 101.075 34.393 101.146 34.1803C101.442 33.2466 101.001 32.6715 100.047 32.5257C99.363 32.4824 98.6804 32.6326 98.0776 32.9591C96.2897 33.8274 94.7331 35.1073 93.5355 36.6936C92.8028 37.769 92.141 38.9193 92.0701 40.2154C92.0701 40.3572 91.9952 40.499 91.9952 40.6448C92.0701 41.7241 92.4364 42.0826 93.5355 42.0826C94.2221 42.0682 94.8961 41.8956 95.5052 41.5784C96.8958 40.9323 98.2155 40.1405 98.9482 38.7066C99.023 38.5608 99.1688 38.419 99.1688 38.2733C99.3894 37.8439 99.2436 37.6272 98.7315 37.5563H97.5497C97.3469 37.5434 97.148 37.494 96.9627 37.4105C96.5255 37.1978 96.4506 36.8354 96.8879 36.5478C97.258 36.2762 97.7021 36.1239 98.161 36.1113C98.62 36.0986 99.0718 36.2261 99.4564 36.4769C99.7685 36.7231 100.158 36.8502 100.555 36.8354C104.219 36.7645 107.808 36.7645 111.4 36.6227C112.425 36.6227 113.37 36.5478 114.406 36.5478C114.623 36.5478 114.989 36.4769 114.989 36.8354C115.064 37.123 114.623 37.123 114.406 37.123C114.067 37.1824 113.722 37.2075 113.378 37.1978L106.224 37.4105C104.467 37.4854 102.706 37.6272 100.875 37.5563C100.692 37.5317 100.507 37.5774 100.357 37.6842C100.207 37.791 100.103 37.9509 100.067 38.1314C99.8796 38.9067 99.5019 39.623 98.9679 40.2154C98.0338 41.2314 96.9148 42.0603 95.6706 42.6578C94.4888 43.1581 93.181 43.4456 91.8613 43.0162C91.4053 42.9044 90.9878 42.6721 90.6524 42.3436C90.3169 42.0151 90.076 41.6025 89.9546 41.149C89.4425 39.2817 89.8837 37.5563 90.9828 35.9766C91.6942 34.8943 92.6159 33.9659 93.6931 33.2466C95.1585 32.313 96.624 31.5921 98.3848 31.3755C98.8896 31.293 99.4061 31.3208 99.8991 31.4568C100.392 31.5928 100.85 31.8338 101.241 32.1633C101.414 32.3234 101.553 32.5177 101.648 32.734C101.742 32.9503 101.791 33.1839 101.791 33.42C101.791 33.6561 101.742 33.8897 101.648 34.1059C101.553 34.3222 101.414 34.5165 101.241 34.6766C101.241 34.7475 101.166 34.6766 101.095 34.6766" fill="#B2461A"/>
<path d="M128.63 34.1812C127.65 34.3877 126.709 34.7509 125.845 35.2567C122.638 36.9146 119.699 39.046 117.127 41.5793C116.54 42.1545 116.244 42.3003 115.945 42.0836C115.358 41.6503 115.724 41.2209 115.87 40.7915C116.506 39.3891 117.216 38.0215 117.997 36.6946C118.791 35.4501 119.5 34.1537 120.121 32.8143C120.266 32.5976 120.487 32.314 120.266 32.0264C120.05 31.8097 119.754 32.0973 119.479 32.1682C118.054 32.7523 116.702 33.4992 115.449 34.394C110.997 37.2053 106.953 40.6145 103.43 44.526C103.193 44.7397 103.017 45.0112 102.918 45.3138C102.853 45.4265 102.753 45.5151 102.634 45.5663C102.515 45.6174 102.382 45.6284 102.256 45.5975C102.125 45.5555 102.014 45.4658 101.946 45.3461C101.878 45.2263 101.858 45.0855 101.889 44.9514C102.04 44.4106 102.237 43.8835 102.476 43.3757C103.658 41.2209 104.97 39.1369 106.286 36.9821C107.314 35.3276 108.338 33.677 109.512 32.0973C109.949 31.5222 110.39 31.0179 110.832 30.4428C111.027 30.2133 111.28 30.0405 111.564 29.9425C111.734 29.8997 111.913 29.9038 112.081 29.9545C112.249 30.0051 112.4 30.1004 112.518 30.2301C112.631 30.3388 112.706 30.4809 112.732 30.6354C112.758 30.79 112.734 30.9489 112.663 31.0888C112.462 31.498 112.216 31.8837 111.931 32.2391C110.611 34.0355 109.217 35.8318 107.901 37.6282C107.394 38.2939 106.928 38.9898 106.506 39.7121C106.846 39.5365 107.145 39.2924 107.385 38.9951C110.448 36.1127 113.786 33.5372 117.351 31.3055C118.247 30.6945 119.238 30.2341 120.282 29.9425C120.841 29.7698 121.446 29.8206 121.968 30.0843C122.374 30.2552 122.703 30.569 122.892 30.9662C123.082 31.3634 123.119 31.8164 122.996 32.2391C122.831 32.9724 122.506 33.6599 122.043 34.2521C121.31 35.2567 120.503 36.3361 119.77 37.4036C119.624 37.6203 119.479 37.9079 119.258 38.1915C119.355 38.2101 119.456 38.1994 119.547 38.1609C119.638 38.1223 119.716 38.0576 119.77 37.9748C121.873 36.2059 124.157 34.6649 126.585 33.3776C127.097 33.1609 127.613 32.9482 128.051 32.8025C128.35 32.6646 128.675 32.5908 129.004 32.5858C130.324 32.5149 131.056 33.4485 130.836 34.6697C130.614 35.4844 130.268 36.2602 129.811 36.9703C129.445 37.6873 129.079 38.4082 128.712 39.0542C128.638 39.2709 128.567 39.4836 128.492 39.7712C128.271 40.5591 128.567 40.9924 129.445 40.9924C130.115 41.0374 130.786 40.9394 131.415 40.7048C134.933 39.5545 138.376 38.1915 141.823 36.6827C142.025 36.6033 142.22 36.5071 142.406 36.3952C142.48 36.3952 142.626 36.3242 142.701 36.4661C142.847 36.6118 142.701 36.7536 142.626 36.8245C142.255 37.0606 141.859 37.2536 141.444 37.3997C138.165 38.9628 134.785 40.3077 131.328 41.4257C130.606 41.7128 129.836 41.8586 129.059 41.8551C128.504 41.8675 127.965 41.665 127.556 41.29C127.146 40.9149 126.897 40.3962 126.861 39.8421C126.807 39.2284 126.907 38.6109 127.152 38.0457C127.412 37.0963 127.781 36.1802 128.252 35.3158C128.49 34.9812 128.618 34.5804 128.618 34.1694" fill="#B2461A"/>
</svg>

<svg xmlns="http://www.w3.org/2000/svg" width="143" height="52" fill="none" viewBox="0 0 143 52"><path fill="#141416" d="M70.805 32.226h.598a.27.27 0 0 0 .3-.266.27.27 0 0 0-.3-.266h-.598zm.579-.926a.69.69 0 0 1 .752.646.62.62 0 0 1-.346.568l.307.524h-.492l-.221-.418h-.58v.418h-.452V31.3zm-.22 2.313a1.394 1.394 0 0 0 1.465-1.414 1.42 1.42 0 0 0-1.466-1.407 1.41 1.41 0 1 0 0 2.82m0-3.293a1.904 1.904 0 0 1 1.969 1.886 1.97 1.97 0 1 1-1.97-1.887M6.614 43.293a9 9 0 0 1-1.97-.197 7.4 7.4 0 0 1-1.54-.508 5.3 5.3 0 0 1-1.182-.725 5.5 5.5 0 0 1-.827-.839A5.7 5.7 0 0 1 0 38.74h4.664c.074.247.194.477.355.678.163.189.36.344.583.457.315.15.663.22 1.012.205.377.033.755-.045 1.087-.225a.61.61 0 0 0 .308-.488.57.57 0 0 0-.327-.5 3.6 3.6 0 0 0-.863-.36c-.358-.105-.788-.212-1.225-.322s-.922-.229-1.39-.366a11 11 0 0 1-1.395-.5 4.8 4.8 0 0 1-1.225-.741 3.4 3.4 0 0 1-.863-1.072 3.2 3.2 0 0 1-.323-1.5c.009-.505.144-1 .394-1.439.28-.498.667-.928 1.134-1.256a6.1 6.1 0 0 1 1.856-.894 8.7 8.7 0 0 1 2.572-.34 8.5 8.5 0 0 1 1.808.178c.493.103.973.261 1.43.473q.582.271 1.076.681a5.35 5.35 0 0 1 1.812 2.876H7.824a1.1 1.1 0 0 0-.245-.492 1.3 1.3 0 0 0-.425-.351 1.54 1.54 0 0 0-.725-.15 1.7 1.7 0 0 0-.938.19.53.53 0 0 0-.267.437c0 .212.189.394.567.488.378.095.847.233 1.41.35.563.119 1.182.26 1.828.43a7.6 7.6 0 0 1 1.828.713c.55.298 1.03.71 1.41 1.206.397.552.597 1.222.567 1.902 0 .562-.135 1.116-.393 1.615a4 4 0 0 1-1.182 1.367c-.595.43-1.262.75-1.97.946a9.2 9.2 0 0 1-2.695.358M16.709 34.287h-3.896v-3.852h12.436v3.852h-3.896v8.651h-4.645zM41.164 30.435h5.196l3.47 5.893v-5.893h4.606v12.503H49.24l-3.467-5.897v5.897h-4.609zM56.04 30.435h10.907v3.573H60.68v1.158h6.267v3.037H60.68v1.162h6.267v3.573H56.04zM32.741 39.341a2.647 2.647 0 1 1 2.758-2.647 2.703 2.703 0 0 1-2.758 2.647m6.902-5.24a6.15 6.15 0 0 0-1.485-2.099 7.1 7.1 0 0 0-2.337-1.41 9.46 9.46 0 0 0-6.165 0 7.1 7.1 0 0 0-2.34 1.41 6.2 6.2 0 0 0-1.461 2.1 6.67 6.67 0 0 0 0 5.16c.342.796.848 1.51 1.485 2.096.68.62 1.475 1.1 2.34 1.414a9.45 9.45 0 0 0 6.165 0 7 7 0 0 0 2.336-1.414 6.1 6.1 0 0 0 1.462-2.096 6.67 6.67 0 0 0 0-5.164"/><path fill="#b2461a" d="M74.84 41.725a3.55 3.55 0 0 0 1.32-.434 59 59 0 0 0 2.344-1.508l7.256-4.728c.953-.646.953-.717.22-1.575-.074-.071-.15-.213-.22-.288a2.005 2.005 0 0 0-2.344-.717 10.95 10.95 0 0 0-4.25 2.226 19.2 19.2 0 0 0-4.251 5.101 4.1 4.1 0 0 0-.587 1.576c-.075.288.07.433.512.362m12.606-8.119c.22-.07.291-.287.366-.358 1.1-1.942 2.344-3.738 3.59-5.535 1.76-2.659 3.592-5.243 5.424-7.902.787-1.221 1.686-2.364 2.418-3.593 1.32-1.938 2.785-3.88 4.176-5.818 1.32-2.013 2.86-3.88 4.333-5.819.658-.933 1.245-1.942 1.97-2.805a8.5 8.5 0 0 1 1.611-1.575c.441-.288.788-.288 1.028 0 .292.287.217.575 0 .933a12 12 0 0 1-.807 1.222c-.954 1.079-1.757 2.23-2.64 3.38l-.878 1.075c-2.198 2.8-4.251 5.606-6.303 8.477-1.536 2.155-3.077 4.31-4.617 6.54-1.903 2.513-3.589 5.172-5.42 7.756-1.32 1.797-2.494 3.668-3.664 5.46l-5.515 8.624c-1.466 2.442-3.077 4.813-4.617 7.185-.159.35-.382.666-.658.933a.5.5 0 0 1-.733.071c-.22-.141-.145-.429-.075-.646.442-.575.883-1.15 1.25-1.725 1.181-1.938 2.363-3.94 3.588-5.89 1.54-2.442 3.077-4.959 4.542-7.401.234-.235.389-.536.441-.863-.953.65-1.832 1.296-2.71 1.942-1.907 1.363-3.739 2.73-5.645 4.093q-.946.642-1.97 1.15a3.2 3.2 0 0 1-1.099.359c-1.39.216-2.419-.646-2.344-2.01a9.3 9.3 0 0 1 .438-1.941 13.16 13.16 0 0 1 4.333-5.602c1.224-1 2.613-1.779 4.105-2.3a6.6 6.6 0 0 1 2.635-.288 2.94 2.94 0 0 1 2.419 1.296c.366.5.662 1.004 1.028 1.575M101.075 34.68c-.145-.141 0-.287.071-.5.296-.933-.145-1.508-1.099-1.654a3.65 3.65 0 0 0-1.97.433 12.6 12.6 0 0 0-4.541 3.735c-.733 1.075-1.395 2.225-1.466 3.521 0 .142-.075.284-.075.43.075 1.08.441 1.438 1.54 1.438a4.5 4.5 0 0 0 1.97-.505c1.39-.646 2.71-1.437 3.443-2.871.075-.146.22-.288.22-.434.221-.43.076-.646-.437-.717H97.55a1.7 1.7 0 0 1-.587-.145c-.437-.213-.512-.576-.075-.863a2.26 2.26 0 0 1 2.568-.071c.313.246.702.373 1.099.358 3.664-.07 7.253-.07 10.845-.212 1.025 0 1.97-.075 3.006-.075.217 0 .583-.071.583.287.075.288-.366.288-.583.288q-.51.09-1.028.075l-7.154.212c-1.757.075-3.518.217-5.349.146a.726.726 0 0 0-.808.575 4.8 4.8 0 0 1-1.1 2.084 10.9 10.9 0 0 1-3.296 2.443c-1.182.5-2.49.788-3.81.358a2.62 2.62 0 0 1-1.906-1.867c-.513-1.867-.071-3.593 1.028-5.172a9.7 9.7 0 0 1 2.71-2.73c1.466-.934 2.931-1.655 4.692-1.872a3.54 3.54 0 0 1 2.856.788c.173.16.312.355.407.571a1.72 1.72 0 0 1 0 1.372c-.095.216-.234.41-.407.57 0 .072-.075 0-.146 0"/><path fill="#b2461a" d="M128.63 34.181c-.98.207-1.921.57-2.785 1.076a36 36 0 0 0-8.718 6.322c-.587.575-.883.721-1.182.505-.587-.434-.221-.863-.075-1.293a44 44 0 0 1 2.127-4.096 33 33 0 0 0 2.124-3.88c.145-.217.366-.501.145-.789-.216-.216-.512.071-.787.142a20 20 0 0 0-4.03 2.226 57.5 57.5 0 0 0-12.019 10.132 1.8 1.8 0 0 0-.512.788.6.6 0 0 1-.662.283.55.55 0 0 1-.367-.646c.151-.54.348-1.068.587-1.575 1.182-2.155 2.494-4.24 3.81-6.394 1.028-1.654 2.052-3.305 3.226-4.885.437-.575.878-1.08 1.32-1.654a1.7 1.7 0 0 1 .732-.5.97.97 0 0 1 .954.287.73.73 0 0 1 .145.859 6.2 6.2 0 0 1-.732 1.15c-1.32 1.797-2.714 3.593-4.03 5.39a21 21 0 0 0-1.395 2.083c.34-.176.639-.42.879-.717a64.4 64.4 0 0 1 9.966-7.69 10 10 0 0 1 2.931-1.363 2.26 2.26 0 0 1 1.686.142 1.793 1.793 0 0 1 1.028 2.155 5.1 5.1 0 0 1-.953 2.013c-.733 1.005-1.54 2.084-2.273 3.152-.146.216-.291.504-.512.787a.5.5 0 0 0 .512-.216 39 39 0 0 1 6.815-4.597c.512-.217 1.028-.43 1.466-.575.299-.138.624-.212.953-.217 1.32-.071 2.052.863 1.832 2.084a8.3 8.3 0 0 1-1.025 2.3c-.366.717-.732 1.438-1.099 2.084a9 9 0 0 0-.22.717c-.221.788.075 1.221.953 1.221a4.7 4.7 0 0 0 1.97-.287c3.518-1.15 6.961-2.514 10.408-4.022q.304-.12.583-.288c.074 0 .22-.07.295.071.146.146 0 .288-.075.358q-.558.356-1.182.576a82.5 82.5 0 0 1-10.116 4.026 6.1 6.1 0 0 1-2.269.43 2.154 2.154 0 0 1-2.198-2.014 3.7 3.7 0 0 1 .291-1.796c.26-.95.629-1.866 1.1-2.73.238-.335.366-.736.366-1.147"/></svg>
